launcher/android/assets/skins/day/svg/mapMultiStage2.svg

<svg enable-background="new 0 0 258.00 258.00" height="258" viewBox="0 0 258 258" width="258" xmlns="http://www.w3.org/2000/svg" xmlns:xlink="http://www.w3.org/1999/xlink"><linearGradient id="a" gradientTransform="matrix(0 -1 1 0 -.581108 1.581108)" gradientUnits="objectBoundingBox" x1=".5" x2="1.66222" y1="1.08111" y2="1.08111"><stop offset="0" stop-color="#abc4ab"/><stop offset=".771552" stop-color="#d5e1d5"/><stop offset="1" stop-color="#fff"/></linearGradient><path d="m44 4.00006h170c22.091 0 40 17.90844 40 39.99984v170.0001c0 22.091-17.909 40-40 40h-170c-22.0914 0-40-17.909-40-40v-170.0001c0-22.0914 17.9086-39.99984 40-39.99984z" fill="url(#a)" stroke="#000" stroke-linecap="square" stroke-linejoin="bevel" stroke-width="8"/><g fill="#7a1111" stroke-linejoin="round" stroke-width=".2"><path d="m45.3286 86.7772c-1.2084-3.5417-1.625-6.8472-1.4861-11.014.1389-4.1666.8333-9.1943 3.9304-12.9582 3.0973-3.7639 8.5973-6.2639 13.2813-6.6077 4.6841-.3437 8.5521 1.4688 11.2153 4.8543 2.6632 3.3854 4.1216 8.3437 5.2049 12.5729 1.0833 4.2291 1.7917 7.7291 2.7083 11.1041.9167 3.375 2.0417 6.625 3.3959 9.9584 1.3541 3.3333 2.9375 6.75 4.427 9.753 1.4896 3.004 2.8855 5.594 3.5835 7.278.6979 1.684.6979 2.462-2.0799 4.795-2.7778 2.334-8.3333 6.222-11.4861 8.32-3.1528 2.097-3.9029 2.403-5.2779 1.833-1.375-.569-3.375-2.014-6.111-5.389-2.7361-3.375-6.2084-8.68-9.0139-12.903-2.8056-4.222-4.9445-7.361-7.014-10.819-2.0694-3.4583-4.0694-7.2361-5.2777-10.7778z"/><path d="m80.8286 131.416c2.8056-2.236 8.0277-6.43 10.9306-8.458 2.9027-2.028 3.486-1.889 4.236-1.222.75.666 1.6667 1.861 3.0973 3.763 1.4305 1.903 3.3745 4.514 4.3335 7.306.958 2.792.93 5.764-.077 8.215-1.007 2.452-2.993 4.382-5.7565 5.368-2.7639.986-6.3056 1.028-8.6181.424s-3.3958-1.854-4.8958-3.688c-1.5-1.833-3.4167-4.25-4.625-5.833-1.2084-1.583-1.7084-2.333-1.764-2.847-.0554-.514.3333-.792 3.139-3.028z"/><path d="m190.494 116.669c-1.431-3.457-3.301-6.215-6.156-9.253-2.855-3.037-6.696-6.355-11.508-7.137-4.811-.7817-10.592.972-14.337 3.807-3.745 2.834-5.453 6.749-5.218 11.05s2.413 8.988 4.392 12.879c1.978 3.892 3.757 6.988 5.297 10.128s2.841 6.324 4.025 9.722c1.184 3.397 2.25 7.009 3.115 10.248.864 3.239 1.526 6.106 2.113 7.832.588 1.725 1.102 2.309 4.728 2.228 3.627-.082 10.367-.829 14.12-1.336 3.752-.506 4.518-.772 5.174-2.107.657-1.336 1.205-3.741 1.032-8.082-.173-4.342-1.069-10.619-1.749-15.642-.681-5.024-1.147-8.794-1.876-12.757-.729-3.964-1.721-8.122-3.152-11.58z"/><path d="m193.305 173.634c-3.584.173-10.275.471-13.794.865-3.519.393-3.866.883-3.989 1.879-.123.995-.023 2.498.159 4.871.182 2.374.446 5.619 1.569 8.348 1.124 2.73 3.107 4.943 5.482 6.12 2.375 1.176 5.141 1.315 7.868.23 2.726-1.084 5.414-3.391 6.752-5.371 1.338-1.981 1.326-3.635 1.242-6.002-.084-2.368-.24-5.448-.378-7.435-.137-1.987-.257-2.881-.555-3.303-.297-.423-.773-.375-4.356-.202z"/></g></svg>

﻿<?xml version="1.0" encoding="utf-8"?>
<!DOCTYPE svg PUBLIC "-//W3C//DTD SVG 1.1//EN" "http://www.w3.org/Graphics/SVG/1.1/DTD/svg11.dtd">
<svg xmlns="http://www.w3.org/2000/svg" xmlns:xlink="http://www.w3.org/1999/xlink" version="1.1" baseProfile="full" width="258" height="258" viewBox="0 0 258.00 258.00" enable-background="new 0 0 258.00 258.00" xml:space="preserve">
	<linearGradient id="SVGID_Fill1_" gradientUnits="objectBoundingBox" x1="0.5" y1="1.08111" x2="1.66222" y2="1.08111" gradientTransform="rotate(-90.000000 0.500000 1.081108)">
		<stop offset="0" stop-color="#ABC4AB" stop-opacity="1"/>
		<stop offset="0.771552" stop-color="#D5E1D5" stop-opacity="1"/>
		<stop offset="1" stop-color="#FFFFFF" stop-opacity="1"/>
	</linearGradient>
	<path fill="url(#SVGID_Fill1_)" stroke-width="8" stroke-linecap="square" stroke-linejoin="bevel" stroke="#000000" stroke-opacity="1" d="M 44,4.00006L 214,4.00006C 236.091,4.00006 254,21.9085 254,43.9999L 254,214C 254,236.091 236.091,254 214,254L 44,254C 21.9086,254 4,236.091 4,214L 4,43.9999C 4,21.9085 21.9086,4.00006 44,4.00006 Z "/>
	<g>
		<g>
			<path fill="#7A1111" fill-opacity="1" stroke-width="0.2" stroke-linejoin="round" d="M 45.3286,86.7772C 44.1202,83.2355 43.7036,79.93 43.8425,75.7632C 43.9814,71.5966 44.6758,66.5689 47.7729,62.805C 50.8702,59.0411 56.3702,56.5411 61.0542,56.1973C 65.7383,55.8536 69.6063,57.6661 72.2695,61.0516C 74.9327,64.437 76.3911,69.3953 77.4744,73.6245C 78.5577,77.8536 79.2661,81.3536 80.1827,84.7286C 81.0994,88.1036 82.2244,91.3536 83.5786,94.687C 84.9327,98.0203 86.5161,101.437 88.0056,104.44C 89.4952,107.444 90.8911,110.034 91.5891,111.718C 92.287,113.402 92.287,114.18 89.5092,116.513C 86.7314,118.847 81.1759,122.735 78.0231,124.833C 74.8703,126.93 74.1202,127.236 72.7452,126.666C 71.3702,126.097 69.3702,124.652 66.6342,121.277C 63.8981,117.902 60.4258,112.597 57.6203,108.374C 54.8147,104.152 52.6758,101.013 50.6063,97.555C 48.5369,94.0967 46.5369,90.3189 45.3286,86.7772 Z "/>
			<path fill="#7A1111" fill-opacity="1" stroke-width="0.2" stroke-linejoin="round" d="M 80.8286,131.416C 83.6342,129.18 88.8563,124.986 91.7592,122.958C 94.6619,120.93 95.2452,121.069 95.9952,121.736C 96.7452,122.402 97.6619,123.597 99.0925,125.499C 100.523,127.402 102.467,130.013 103.426,132.805C 104.384,135.597 104.356,138.569 103.349,141.02C 102.342,143.472 100.356,145.402 97.5925,146.388C 94.8286,147.374 91.2869,147.416 88.9744,146.812C 86.6619,146.208 85.5786,144.958 84.0786,143.124C 82.5786,141.291 80.6619,138.874 79.4536,137.291C 78.2452,135.708 77.7452,134.958 77.6896,134.444C 77.6342,133.93 78.0229,133.652 80.8286,131.416 Z "/>
		</g>
		<g>
			<path fill="#7A1111" fill-opacity="1" stroke-width="0.2" stroke-linejoin="round" d="M 190.494,116.669C 189.063,113.212 187.193,110.454 184.338,107.416C 181.483,104.379 177.642,101.061 172.83,100.279C 168.019,99.4973 162.238,101.251 158.493,104.086C 154.748,106.92 153.04,110.835 153.275,115.136C 153.51,119.437 155.688,124.124 157.667,128.015C 159.645,131.907 161.424,135.003 162.964,138.143C 164.504,141.283 165.805,144.467 166.989,147.865C 168.173,151.262 169.239,154.874 170.104,158.113C 170.968,161.352 171.63,164.219 172.217,165.945C 172.805,167.67 173.319,168.254 176.945,168.173C 180.572,168.091 187.312,167.344 191.065,166.837C 194.817,166.331 195.583,166.065 196.239,164.73C 196.896,163.394 197.444,160.989 197.271,156.648C 197.098,152.306 196.202,146.029 195.522,141.006C 194.841,135.982 194.375,132.212 193.646,128.249C 192.917,124.285 191.925,120.127 190.494,116.669 Z "/>
			<path fill="#7A1111" fill-opacity="1" stroke-width="0.2" stroke-linejoin="round" d="M 193.305,173.634C 189.721,173.807 183.03,174.105 179.511,174.499C 175.992,174.892 175.645,175.382 175.522,176.378C 175.399,177.373 175.499,178.876 175.681,181.249C 175.863,183.623 176.127,186.868 177.25,189.597C 178.374,192.327 180.357,194.54 182.732,195.717C 185.107,196.893 187.873,197.032 190.6,195.947C 193.326,194.863 196.014,192.556 197.352,190.576C 198.69,188.595 198.678,186.941 198.594,184.574C 198.51,182.206 198.354,179.126 198.216,177.139C 198.079,175.152 197.959,174.258 197.661,173.836C 197.364,173.413 196.888,173.461 193.305,173.634 Z "/>
		</g>
	</g>
</svg>
